icons/svg/place_of_worship/buddhist3.svg

<?xml version="1.0" encoding="UTF-8" standalone="no"?>
<!-- Created with Inkscape (http://www.inkscape.org/) -->

<svg
   xmlns:dc="http://purl.org/dc/elements/1.1/"
   xmlns:cc="http://creativecommons.org/ns#"
   xmlns:rdf="http://www.w3.org/1999/02/22-rdf-syntax-ns#"
   xmlns:svg="http://www.w3.org/2000/svg"
   xmlns="http://www.w3.org/2000/svg"
   xmlns:sodipodi="http://sodipodi.sourceforge.net/DTD/sodipodi-0.dtd"
   xmlns:inkscape="http://www.inkscape.org/namespaces/inkscape"
   version="1.0"
   width="580"
   height="580"
   id="svg2"
   sodipodi:version="0.32"
   inkscape:version="0.91 r13725"
   sodipodi:docname="buddhist3.svg"
   inkscape:output_extension="org.inkscape.output.svg.inkscape">
  <metadata
     id="metadata2975">
    <rdf:RDF>
      <cc:Work
         rdf:about="">
        <dc:format>image/svg+xml</dc:format>
        <dc:type
           rdf:resource="http://purl.org/dc/dcmitype/StillImage" />
        <cc:license
           rdf:resource="http://web.resource.org/cc/PublicDomain" />
        <dc:language>en</dc:language>
      </cc:Work>
    </rdf:RDF>
  </metadata>
  <sodipodi:namedview
     inkscape:window-height="1051"
     inkscape:window-width="1920"
     inkscape:pageshadow="2"
     inkscape:pageopacity="0.0"
     guidetolerance="10.0"
     gridtolerance="10.0"
     objecttolerance="10.0"
     borderopacity="1.0"
     bordercolor="#666666"
     pagecolor="#ffffff"
     id="base"
     inkscape:zoom="0.92167712"
     inkscape:cx="175.00595"
     inkscape:cy="361.81449"
     inkscape:window-x="0"
     inkscape:window-y="0"
     inkscape:current-layer="svg2"
     showgrid="false"
     inkscape:window-maximized="1" />
  <defs
     id="defs4">
    <inkscape:perspective
       sodipodi:type="inkscape:persp3d"
       inkscape:vp_x="0 : 290 : 1"
       inkscape:vp_y="0 : 1000 : 0"
       inkscape:vp_z="580 : 290 : 1"
       inkscape:persp3d-origin="290 : 193.33333 : 1"
       id="perspective2441" />
    <inkscape:perspective
       id="perspective2466"
       inkscape:persp3d-origin="372.04724 : 350.78739 : 1"
       inkscape:vp_z="744.09448 : 526.18109 : 1"
       inkscape:vp_y="0 : 1000 : 0"
       inkscape:vp_x="0 : 526.18109 : 1"
       sodipodi:type="inkscape:persp3d" />
    <inkscape:perspective
       id="perspective3333"
       inkscape:persp3d-origin="372.04724 : 350.78739 : 1"
       inkscape:vp_z="744.09448 : 526.18109 : 1"
       inkscape:vp_y="0 : 1000 : 0"
       inkscape:vp_x="0 : 526.18109 : 1"
       sodipodi:type="inkscape:persp3d" />
    <inkscape:perspective
       id="perspective3401"
       inkscape:persp3d-origin="372.04724 : 350.78739 : 1"
       inkscape:vp_z="744.09448 : 526.18109 : 1"
       inkscape:vp_y="0 : 1000 : 0"
       inkscape:vp_x="0 : 526.18109 : 1"
       sodipodi:type="inkscape:persp3d" />
    <inkscape:perspective
       id="perspective3464"
       inkscape:persp3d-origin="372.04724 : 350.78739 : 1"
       inkscape:vp_z="744.09448 : 526.18109 : 1"
       inkscape:vp_y="0 : 1000 : 0"
       inkscape:vp_x="0 : 526.18109 : 1"
       sodipodi:type="inkscape:persp3d" />
    <inkscape:perspective
       id="perspective3581"
       inkscape:persp3d-origin="225 : 150 : 1"
       inkscape:vp_z="450 : 225 : 1"
       inkscape:vp_y="0 : 1000 : 0"
       inkscape:vp_x="0 : 225 : 1"
       sodipodi:type="inkscape:persp3d" />
    <inkscape:perspective
       id="perspective4312"
       inkscape:persp3d-origin="225 : 150 : 1"
       inkscape:vp_z="450 : 225 : 1"
       inkscape:vp_y="0 : 1000 : 0"
       inkscape:vp_x="0 : 225 : 1"
       sodipodi:type="inkscape:persp3d" />
  </defs>
  <g
     id="g1327">
    <path
       d="M 66.275,1.768 C 24.94,1.768 1.704,23.139 1.704,66.804 L 1.704,516.927 C 1.704,557.771 22.599,579.156 63.896,579.156 L 515.92,579.156 C 557.227,579.156 578.149,558.841 578.149,516.927 L 578.149,66.804 C 578.149,24.203 557.227,1.768 514.628,1.768 C 514.624,1.768 66.133,1.625 66.275,1.768 z "
       style="fill:#111;stroke:#eee;stroke-width:3.40799999"
       id="path1329" />
  </g>
  <path
     style="opacity:1;fill:#ffffff"
     d="m 268.06593,544.17217 c -4.76979,-4.76976 -7.277,-12.1283 -7.277,-21.35756 l 0,-14.08061 -21.11016,-4.15316 C 157.7628,488.46485 85.313118,403.55344 67.732846,315.56953 c -5.361965,-0.41392 -8.326724,-0.62254 -13.99299,-0.62254 -17.721468,0 -29.4531,-11.82525 -29.4531,-29.68816 0,-16.23685 9.980352,-25.73492 28.194329,-26.83186 l 13.648368,-0.82197 6.441555,-24.99684 c 10.746793,-41.70341 26.704221,-69.13914 59.010232,-101.45677 33.11082,-33.122707 60.82479,-49.756599 100.83364,-59.668843 12.15619,-3.01172 13.08964,-0.688667 26.77322,-3.741205 1.80782,-19.008484 0.16089,-40.208094 29.2229,-39.211587 22.97063,0.801346 25.16351,14.827227 25.25825,38.100051 7.87771,0.771951 10.43492,1.004742 24.07171,3.808828 81.99388,16.860094 155.62447,90.832146 169.99193,173.557696 2.27396,13.09294 3.49453,14.43991 12.15862,13.4177 11.4366,-1.34929 30.17095,7.55485 33.35535,15.85326 7.88743,20.55437 -3.67575,38.21578 -27.07752,41.35773 -15.32063,2.05699 -16.04727,2.72283 -18.46875,16.92427 -3.7924,22.24146 -18.67363,56.30113 -35.28907,80.76841 -29.28436,43.12316 -74.93601,75.21163 -127.93721,89.9269 l -27.2887,7.57647 -1.1783,14.44667 c -0.64809,7.94569 -3.76714,17.312 -6.9313,20.81405 -8.09725,8.962 -31.66115,8.43931 -41.01008,-0.90962 z m -7.277,-140.08205 c 0,-25.01465 -1.26412,-45.48119 -2.80921,-45.48119 -1.54506,0 -16.64302,13.90605 -33.551,30.90232 -17.01659,17.10544 -26.62556,27.60904 -30.19731,32.76476 4.4027,3.22355 12.13124,11.9125 31.47203,19.86349 16.20563,6.66211 29.56233,8.57051 35.67521,9.49236 -1.01081,-7.60129 -0.58972,-19.00241 -0.58972,-47.54174 z m 109.26858,29.50401 15.83751,-9.76383 -32.4596,-32.61068 c -17.85278,-17.93587 -33.72171,-32.61069 -35.26433,-32.61069 -1.54261,0 -2.80474,20.6712 -2.80474,45.93599 l 0,45.93601 19.42684,-3.5615 c 6.50381,-1.29866 22.37274,-7.29504 35.26432,-13.3253 z m -182.06519,-86.81031 33.71426,-31.83683 -48.1759,0 -48.17592,0 2.46669,13.14861 c 2.82157,15.04027 20.5466,52.90979 24.09465,51.47812 1.29906,-0.52421 17.53335,-15.27965 36.07622,-32.7899 z m 254.10354,8.51495 c 5.69424,-12.50733 8.16933,-22.84226 9.41221,-28.34548 l 2.25972,-12.0063 -48.20351,0 -48.2035,0 32.59473,32.74644 c 17.9271,18.01055 33.94289,32.74648 35.59062,32.74648 1.64773,0 10.85552,-12.63381 16.54973,-25.14114 z M 301.71748,319.32518 c 6.25765,-3.23593 16.52893,-14.02093 19.55911,-21.27314 4.8297,-11.5591 1.87382,-23.79282 -7.19764,-33.7392 -14.46647,-15.86172 -33.25916,-15.95674 -49.311,-0.832 -15.66384,14.75912 -11.82886,35.25443 -2.93514,45.6622 10.20038,11.93685 26.70606,16.99708 39.88467,10.18214 z M 217.12699,256.6552 c 0,-1.04232 -14.50966,-16.33752 -32.2437,-33.98939 l -32.24367,-32.09429 -7.76111,12.55767 c -8.71903,14.10769 -14.31288,29.34847 -19.11399,55.5126 2.40055,0.3379 6.33267,-0.0915 45.88128,-0.0915 25.01465,0 45.48119,-0.85279 45.48119,-1.89512 z m 233.66469,-7.90355 c -0.58823,-4.78616 -3.40449,-19.44123 -9.28805,-32.56087 -5.94465,-13.25588 -14.96219,-24.95263 -16.53947,-24.95263 -2.63074,0 -65.93564,62.80621 -65.93645,65.41705 -3.3e-4,1.04233 20.87554,1.55448 46.39082,1.13813 45.95502,-0.74986 46.38181,-0.8349 45.37315,-9.04168 z m -190.00275,-79.41379 0,-47.36974 -10.00587,2.25973 c -18.23449,0.79792 -56.37287,21.87994 -55.48704,25.81409 0.5561,2.4697 62.05784,66.66568 64.50742,66.66568 0.54203,0 0.98549,-21.31638 0.98549,-47.36976 z m 99.69552,-35.14063 c -13.58846,-6.37858 -29.19967,-8.50838 -34.20262,-9.13391 l -9.09622,-1.13732 -1.0107,47.30043 -1.01074,47.30044 34.81326,-34.56571 34.81324,-34.5657 -24.30622,-15.19823 z"
     id="path5316"
     sodipodi:nodetypes="cccccsscccsscscssssssscccsccsscscccccscccccccccscccccccsccssssccccccsccssssccccssccccccccc"
     inkscape:connector-curvature="0" />
</svg>

<svg width="580" height="580" viewBox="0 0 580 580" fill="none" xmlns="http://www.w3.org/2000/svg">
<g clip-path="url(#clip0)">
<path d="M66.275 1.76799C24.94 1.76799 1.70398 23.139 1.70398 66.804V516.927C1.70398 557.771 22.599 579.156 63.896 579.156H515.92C557.227 579.156 578.149 558.841 578.149 516.927V66.804C578.149 24.203 557.227 1.76799 514.628 1.76799C514.624 1.76799 66.133 1.62499 66.275 1.76799Z" fill="#111111" stroke="#EEEEEE" stroke-width="3.408"/>
<path d="M268.066 544.172C263.296 539.402 260.789 532.044 260.789 522.815V508.734L239.679 504.581C157.763 488.465 85.3131 403.553 67.7328 315.57C62.3709 315.156 59.4061 314.947 53.7398 314.947C36.0184 314.947 24.2867 303.122 24.2867 285.259C24.2867 269.022 34.2671 259.524 52.4811 258.427L66.1294 257.605L72.571 232.608C83.3178 190.905 99.2752 163.469 131.581 131.151C164.692 98.0287 192.406 81.3948 232.415 71.4825C244.571 68.4708 245.505 70.7939 259.188 67.7413C260.996 48.7328 259.349 27.5332 288.411 28.5297C311.382 29.3311 313.575 43.357 313.669 66.6298C321.547 67.4017 324.104 67.6345 337.741 70.4386C419.735 87.2987 493.365 161.271 507.733 243.996C510.007 257.089 511.227 258.436 519.891 257.414C531.328 256.065 550.062 264.969 553.247 273.267C561.134 293.822 549.571 311.483 526.169 314.625C510.849 316.682 510.122 317.348 507.701 331.549C503.908 353.791 489.027 387.85 472.412 412.318C443.127 455.441 397.476 487.529 344.474 502.245L317.186 509.821L316.007 524.268C315.359 532.213 312.24 541.58 309.076 545.082C300.979 554.044 277.415 553.521 268.066 544.172V544.172ZM260.789 404.09C260.789 379.075 259.525 358.609 257.98 358.609C256.435 358.609 241.337 372.515 224.429 389.511C207.412 406.617 197.803 417.12 194.231 422.276C198.634 425.5 206.363 434.189 225.703 442.139C241.909 448.802 255.266 450.71 261.379 451.632C260.368 444.031 260.789 432.629 260.789 404.09V404.09ZM370.057 433.594L385.895 423.83L353.435 391.22C335.583 373.284 319.714 358.609 318.171 358.609C316.628 358.609 315.366 379.28 315.366 404.545V450.481L334.793 446.919C341.297 445.621 357.166 439.624 370.057 433.594ZM187.992 346.784L221.707 314.947H173.531H125.355L127.821 328.096C130.643 343.136 148.368 381.005 151.916 379.574C153.215 379.05 169.449 364.294 187.992 346.784ZM442.096 355.299C447.79 342.791 450.265 332.456 451.508 326.953L453.768 314.947H405.564H357.361L389.956 347.693C407.883 365.704 423.898 380.44 425.546 380.44C427.194 380.44 436.402 367.806 442.096 355.299ZM301.717 319.325C307.975 316.089 318.246 305.304 321.277 298.052C326.106 286.493 323.15 274.259 314.079 264.313C299.612 248.451 280.82 248.356 264.768 263.481C249.104 278.24 252.939 298.735 261.833 309.143C272.033 321.08 288.539 326.14 301.717 319.325ZM217.127 256.655C217.127 255.613 202.617 240.318 184.883 222.666L152.64 190.572L144.878 203.129C136.159 217.237 130.566 232.478 125.765 258.642C128.165 258.98 132.097 258.55 171.646 258.55C196.66 258.55 217.127 257.697 217.127 256.655V256.655ZM450.792 248.752C450.203 243.965 447.387 229.31 441.504 216.191C435.559 202.935 426.541 191.238 424.964 191.238C422.333 191.238 359.029 254.044 359.028 256.655C359.027 257.698 379.903 258.21 405.419 257.793C451.374 257.043 451.8 256.958 450.792 248.752V248.752ZM260.789 169.338V121.968L250.783 124.228C232.549 125.026 194.41 146.108 195.296 150.042C195.852 152.512 257.354 216.708 259.803 216.708C260.345 216.708 260.789 195.391 260.789 169.338ZM360.484 134.197C346.896 127.819 331.285 125.689 326.282 125.063L317.186 123.926L316.175 171.226L315.164 218.527L349.977 183.961L384.791 149.395L360.484 134.197V134.197Z" fill="white"/>
</g>
<defs>
<clipPath id="clip0">
<path d="M0 0H580V580H0V0Z" fill="white"/>
</clipPath>
</defs>
</svg>
